X: 204
T: Kind and Pretty
B: 204 Favourite Country Dances
N: Published by Straight & Skillern, London ca.1775
F: http://imslp.org/wiki/204_Favourite_Country_Dances_(Various) p.102 #204
Z: 2014 John Chambers <jc:trillian.mit.edu>
M: 9/8
L: 1/8
K: Bb
%  - - - - - - - - - - - - - - - - - - - - - - - - -
|:\
B3 dBd cAF | B3 dBd f2b |\
B3 dBd cAF | (G/A/B)G (A/B/c)A B3 :|
|:\
f2f fdf fbf | g2g geg gbg |\
f2f fdB fdB | (c/d/e)c (A/B/c)A B3 :|
%  - - - - - - - - - - - - - - - - - - - - - - - - -
%%begintext align
%% First Man turn his Partner with his Right
%% hand & Cast of One Cu. .| the same with
%% your Left the Man Casts off & the Wo. Cast up
%% :| foot it 6 bott: & top :| then on your own
%% Sides ** lead outside [*** illegible ***]
%%endtext
